X: 1
T: Cape Breton Fiddler's Welcome To Shetland, The
M: 4/4
L: 1/8
R: reel
K: Amaj
EC(3CCC DCB,C|A,B,CE FECE|FBBA BcBA|Bffe f(3fffg|
ac(3ccc eA(3AAA|cBAF EC(3CCC|FGAF Eaaf|1 ecBc A2AF:|2 ecBc A2fg||
|:ae(3eee efed|ce(3eee fece|bffe fgfe|defd B2fg|
ae(3eee efed|ce(3eee fece|1 fdge afed|cdBc A2fg:|2 fdec dBcA|Bagf eAGF||
